elements/app-hax/lib/wired-darkmode-toggle/images/moon.svg

<svg xmlns="http://www.w3.org/2000/svg" fill="none" width="46" height="49" viewBox="0 0 46 49"><path d="M13.5 17.5v-4h-4v2h-4v2h-2v4h-2v8h2v6h2v2h2v2h4v2h6v-2h6v-2h2v-2h2v-2H29v-4h-3.5v2h-10v-2h-2L13 27l-1.5-1.5v-8h2Z" fill="#DCEEF8"/><path d="M11 42v-1h1v1h-1Zm2 0v-1h1v1h-1Zm2 0v-1h1v1h-1Zm2 0v-1h1v1h-1Zm0-2v-1h1v1h-1Zm-6 0v-1h1v1h-1Zm-2 0v-1h1v1H9Zm-2 0v-1h1v1H7Zm0-2v-1h1v1H7Zm-2 0v-1h1v1H5Zm0-2v-1h1v1H5Zm-2 0v-1h1v1H3Zm0-2v-1h1v1H3Zm0-2v-1h1v1H3Zm0-2v-1h1v1H3Zm-2 0v-1h1v1H1Zm12-2v-1h1v1h-1Zm-2-2v-1h1v1h-1ZM1 28v-1h1v1H1Zm0-2v-1h1v1H1Zm0-2v-1h1v1H1Zm0-2v-1h1v1H1Zm2 0v-1h1v1H3Zm0-2v-1h1v1H3Zm0-2v-1h1v1H3Zm2 0v-1h1v1H5Zm0-2v-1h1v1H5Zm2 0v-1h1v1H7Zm2 0v-1h1v1H9Zm2 8v-1h1v1h-1Zm0-2v-1h1v1h-1Zm0-2v-1h1v1h-1Zm0-2v-1h1v1h-1Zm2 0v-1h1v1h-1Zm0-2v-1h1v1h-1Zm2 0v-1h1v1h-1Zm0-2v-1h1v1h-1Zm-2 0v-1h1v1h-1Zm-2 0v-1h1v1h-1Zm-2 0v-1h1v1H9Zm6-2v-1h1v1h-1Zm2 2v-1h1v1h-1Zm2 0v-1h1v1h-1Zm2 0v-1h1v1h-1Zm2 0v-1h1v1h-1Zm2-2v-1h1v1h-1Zm-8 0v-1h1v1h-1Zm6 0v-1h1v1h-1Zm-2 0v-1h1v1h-1Zm-2 0v-1h1v1h-1Zm0 28v-1h1v1h-1Zm2 0v-1h1v1h-1Zm2 0v-1h1v1h-1Zm0-2v-1h1v1h-1Zm2 0v-1h1v1h-1Zm0-2v-1h1v1h-1Zm2 0v-1h1v1h-1Zm0-2v-1h1v1h-1Zm2 0v-1h1v1h-1Zm0-2v-1h1v1h-1Zm0-2v-1h1v1h-1Zm-2 0v-1h1v1h-1Zm-2 0v-1h1v1h-1Zm0 2v-1h1v1h-1Zm-2 0v-1h1v1h-1Zm-2 0v-1h1v1h-1Zm0 2v-1h1v1h-1Zm-2-2v-1h1v1h-1Zm-2 0v-1h1v1h-1Zm-2 0v-1h1v1h-1Zm0-2v-1h1v1h-1Zm-2 0v-1h1v1h-1Zm18-2v-1h1v1h-1Zm-2 0v-1h1v1h-1Zm0-2v-1h1v1h-1Zm2 0v-1h1v1h-1Zm7-24V1h1v1h-1Zm0 2V3h1v1h-1Zm-2 2V5h1v1h-1Zm-2 2V7h1v1h-1Zm6-2V5h1v1h-1Zm2 2V7h1v1h-1Zm-2 2V9h1v1h-1Zm-2 2v-1h1v1h-1Zm-2-2V9h1v1h-1Zm2 4v-1h1v1h-1Zm6-6V7h1v1h-1ZM32 8V7h1v1h-1ZM10 3V2h1v1h-1ZM8 5V4h1v1H8Zm2 2V6h1v1h-1Zm2-2V4h1v1h-1Zm18 39v-1h1v1h-1Zm-2 2v-1h1v1h-1Zm2 2v-1h1v1h-1Zm2-2v-1h1v1h-1Z" stroke="#000"/></svg>

<svg width="46" height="49" viewBox="0 0 46 49" fill="none" xmlns="http://www.w3.org/2000/svg">
<path d="M13.5 17.5V13.5H9.5V15.5H5.5V17.5H3.5V21.5H1.5V29.5H3.5V35.5H5.5V37.5H7.5V39.5H11.5V41.5H17.5V39.5H23.5V37.5H25.5V35.5H27.5V33.5H29V29.5H25.5V31.5H15.5V29.5H13.5L13 27L11.5 25.5V17.5H13.5Z" fill="#DCEEF8"/>
<path d="M11 42V41H12V42H11Z" stroke="black"/>
<path d="M13 42V41H14V42H13Z" stroke="black"/>
<path d="M15 42V41H16V42H15Z" stroke="black"/>
<path d="M17 42V41H18V42H17Z" stroke="black"/>
<path d="M17 40V39H18V40H17Z" stroke="black"/>
<path d="M11 40V39H12V40H11Z" stroke="black"/>
<path d="M9 40V39H10V40H9Z" stroke="black"/>
<path d="M7 40V39H8V40H7Z" stroke="black"/>
<path d="M7 38V37H8V38H7Z" stroke="black"/>
<path d="M5 38V37H6V38H5Z" stroke="black"/>
<path d="M5 36V35H6V36H5Z" stroke="black"/>
<path d="M3 36V35H4V36H3Z" stroke="black"/>
<path d="M3 34V33H4V34H3Z" stroke="black"/>
<path d="M3 32V31H4V32H3Z" stroke="black"/>
<path d="M3 30V29H4V30H3Z" stroke="black"/>
<path d="M1 30V29H2V30H1Z" stroke="black"/>
<path d="M13 28V27H14V28H13Z" stroke="black"/>
<path d="M11 26V25H12V26H11Z" stroke="black"/>
<path d="M1 28V27H2V28H1Z" stroke="black"/>
<path d="M1 26V25H2V26H1Z" stroke="black"/>
<path d="M1 24V23H2V24H1Z" stroke="black"/>
<path d="M1 22V21H2V22H1Z" stroke="black"/>
<path d="M3 22V21H4V22H3Z" stroke="black"/>
<path d="M3 20V19H4V20H3Z" stroke="black"/>
<path d="M3 18V17H4V18H3Z" stroke="black"/>
<path d="M5 18V17H6V18H5Z" stroke="black"/>
<path d="M5 16V15H6V16H5Z" stroke="black"/>
<path d="M7 16V15H8V16H7Z" stroke="black"/>
<path d="M9 16V15H10V16H9Z" stroke="black"/>
<path d="M11 24V23H12V24H11Z" stroke="black"/>
<path d="M11 22V21H12V22H11Z" stroke="black"/>
<path d="M11 20V19H12V20H11Z" stroke="black"/>
<path d="M11 18V17H12V18H11Z" stroke="black"/>
<path d="M13 18V17H14V18H13Z" stroke="black"/>
<path d="M13 16V15H14V16H13Z" stroke="black"/>
<path d="M15 16V15H16V16H15Z" stroke="black"/>
<path d="M15 14V13H16V14H15Z" stroke="black"/>
<path d="M13 14V13H14V14H13Z" stroke="black"/>
<path d="M11 14V13H12V14H11Z" stroke="black"/>
<path d="M9 14V13H10V14H9Z" stroke="black"/>
<path d="M15 12V11H16V12H15Z" stroke="black"/>
<path d="M17 14V13H18V14H17Z" stroke="black"/>
<path d="M19 14V13H20V14H19Z" stroke="black"/>
<path d="M21 14V13H22V14H21Z" stroke="black"/>
<path d="M23 14V13H24V14H23Z" stroke="black"/>
<path d="M25 12V11H26V12H25Z" stroke="black"/>
<path d="M17 12V11H18V12H17Z" stroke="black"/>
<path d="M23 12V11H24V12H23Z" stroke="black"/>
<path d="M21 12V11H22V12H21Z" stroke="black"/>
<path d="M19 12V11H20V12H19Z" stroke="black"/>
<path d="M19 40V39H20V40H19Z" stroke="black"/>
<path d="M21 40V39H22V40H21Z" stroke="black"/>
<path d="M23 40V39H24V40H23Z" stroke="black"/>
<path d="M23 38V37H24V38H23Z" stroke="black"/>
<path d="M25 38V37H26V38H25Z" stroke="black"/>
<path d="M25 36V35H26V36H25Z" stroke="black"/>
<path d="M27 36V35H28V36H27Z" stroke="black"/>
<path d="M27 34V33H28V34H27Z" stroke="black"/>
<path d="M29 34V33H30V34H29Z" stroke="black"/>
<path d="M29 32V31H30V32H29Z" stroke="black"/>
<path d="M29 30V29H30V30H29Z" stroke="black"/>
<path d="M27 30V29H28V30H27Z" stroke="black"/>
<path d="M25 30V29H26V30H25Z" stroke="black"/>
<path d="M25 32V31H26V32H25Z" stroke="black"/>
<path d="M23 32V31H24V32H23Z" stroke="black"/>
<path d="M21 32V31H22V32H21Z" stroke="black"/>
<path d="M21 34V33H22V34H21Z" stroke="black"/>
<path d="M19 32V31H20V32H19Z" stroke="black"/>
<path d="M17 32V31H18V32H17Z" stroke="black"/>
<path d="M15 32V31H16V32H15Z" stroke="black"/>
<path d="M15 30V29H16V30H15Z" stroke="black"/>
<path d="M13 30V29H14V30H13Z" stroke="black"/>
<path d="M31 28V27H32V28H31Z" stroke="black"/>
<path d="M29 28V27H30V28H29Z" stroke="black"/>
<path d="M29 26V25H30V26H29Z" stroke="black"/>
<path d="M31 26V25H32V26H31Z" stroke="black"/>
<path d="M38 2V1H39V2H38Z" stroke="black"/>
<path d="M38 4V3H39V4H38Z" stroke="black"/>
<path d="M36 6V5H37V6H36Z" stroke="black"/>
<path d="M34 8V7H35V8H34Z" stroke="black"/>
<path d="M40 6V5H41V6H40Z" stroke="black"/>
<path d="M42 8V7H43V8H42Z" stroke="black"/>
<path d="M40 10V9H41V10H40Z" stroke="black"/>
<path d="M38 12V11H39V12H38Z" stroke="black"/>
<path d="M36 10V9H37V10H36Z" stroke="black"/>
<path d="M38 14V13H39V14H38Z" stroke="black"/>
<path d="M44 8V7H45V8H44Z" stroke="black"/>
<path d="M32 8V7H33V8H32Z" stroke="black"/>
<path d="M10 3V2H11V3H10Z" stroke="black"/>
<path d="M8 5V4H9V5H8Z" stroke="black"/>
<path d="M10 7V6H11V7H10Z" stroke="black"/>
<path d="M12 5V4H13V5H12Z" stroke="black"/>
<path d="M30 44V43H31V44H30Z" stroke="black"/>
<path d="M28 46V45H29V46H28Z" stroke="black"/>
<path d="M30 48V47H31V48H30Z" stroke="black"/>
<path d="M32 46V45H33V46H32Z" stroke="black"/>
</svg>
